X:1
T:The return from Fingal
T:After Battle of Aughrim
R:march
H:This tune is supposed to have been played by Brian Boru's troops on the
H:return from the Battle of Clontarf.
Z:id:hn-march-9
M:C
L:1/8
K:Edor
"Em"BAGF EFGA|BAGF E3B|"D"AGFA d2A2||1B2A2 Bcd2:|2"Em"F2E2 E4:|
|:"Em"f2e2 e2dc|"D"B2A2 d3A|B2A2 d2A2|B2A2 Bcde|"Em"f2e2 e2dc|"D"B2A2 d3B|AGFA d2A2|F2E2 E4:|
